inst/assets/svg/wi-moon-alt-waxing-gibbous-5.svg

<?xml version="1.0" encoding="UTF-8"?>
<svg xmlns="http://www.w3.org/2000/svg" xmlns:xlink="http://www.w3.org/1999/xlink" width="30pt" height="30pt" viewBox="0 0 30 30" version="1.1">
<g id="surface436">
<path style=" stroke:none;fill-rule:nonzero;fill:rgb(0%,0%,0%);fill-opacity:1;" d="M 3.738281 14.441406 C 3.738281 12.910156 4.039063 11.441406 4.628906 10.050781 C 5.21875 8.660156 6.03125 7.460938 7.03125 6.449219 C 8.03125 5.441406 9.230469 4.640625 10.628906 4.050781 C 12.03125 3.460938 13.480469 3.160156 15 3.160156 C 16.53125 3.160156 18 3.460938 19.390625 4.050781 C 20.78125 4.640625 21.980469 5.449219 22.988281 6.449219 C 24 7.449219 24.800781 8.648438 25.390625 10.050781 C 25.980469 11.449219 26.28125 12.898438 26.28125 14.441406 C 26.28125 15.960938 25.980469 17.421875 25.390625 18.808594 C 24.800781 20.199219 23.988281 21.398438 22.988281 22.410156 C 21.988281 23.421875 20.789063 24.21875 19.390625 24.808594 C 17.988281 25.398438 16.539063 25.699219 15 25.699219 C 13.480469 25.699219 12.019531 25.398438 10.628906 24.808594 C 9.238281 24.21875 8.039063 23.410156 7.03125 22.410156 C 6.019531 21.410156 5.21875 20.210938 4.628906 18.808594 C 4.039063 17.410156 3.738281 15.96875 3.738281 14.441406 Z M 7.710938 14.441406 C 7.710938 19.199219 9.371094 22.460938 12.679688 24.230469 C 13.410156 24.421875 14.191406 24.511719 15.011719 24.511719 C 16.378906 24.511719 17.679688 24.238281 18.921875 23.710938 C 20.160156 23.179688 21.230469 22.460938 22.140625 21.558594 C 23.050781 20.660156 23.761719 19.589844 24.289063 18.339844 C 24.820313 17.089844 25.089844 15.789063 25.089844 14.441406 C 25.089844 12.621094 24.640625 10.941406 23.738281 9.390625 C 22.839844 7.839844 21.609375 6.621094 20.058594 5.710938 C 18.511719 4.800781 16.828125 4.359375 15.011719 4.359375 C 14.328125 4.359375 13.710938 4.410156 13.160156 4.519531 C 11.53125 5.460938 10.210938 6.789063 9.210938 8.511719 C 8.210938 10.230469 7.710938 12.21875 7.710938 14.441406 Z M 7.710938 14.441406 "/>
</g>
</svg>

<?xml version="1.0" encoding="utf-8"?>
<!-- Generator: Adobe Illustrator 22.0.1, SVG Export Plug-In . SVG Version: 6.00 Build 0)  -->
<svg version="1.1" id="Layer_1" xmlns="http://www.w3.org/2000/svg" xmlns:xlink="http://www.w3.org/1999/xlink" x="0px" y="0px"
	 viewBox="0 0 30 30" style="enable-background:new 0 0 30 30;" xml:space="preserve">
<path d="M3.74,14.44c0-1.53,0.3-3,0.89-4.39s1.4-2.59,2.4-3.6s2.2-1.81,3.6-2.4s2.85-0.89,4.37-0.89c1.53,0,3,0.3,4.39,0.89
	s2.59,1.4,3.6,2.4s1.81,2.2,2.4,3.6s0.89,2.85,0.89,4.39c0,1.52-0.3,2.98-0.89,4.37s-1.4,2.59-2.4,3.6s-2.2,1.81-3.6,2.4
	s-2.85,0.89-4.39,0.89c-1.52,0-2.98-0.3-4.37-0.89s-2.59-1.4-3.6-2.4s-1.81-2.2-2.4-3.6S3.74,15.97,3.74,14.44z M7.71,14.44
	c0,4.76,1.66,8.02,4.97,9.79c0.73,0.19,1.51,0.28,2.33,0.28c1.37,0,2.67-0.27,3.91-0.8s2.31-1.25,3.22-2.15s1.62-1.97,2.15-3.22
	s0.8-2.55,0.8-3.9c0-1.82-0.45-3.5-1.35-5.05s-2.13-2.77-3.68-3.68s-3.23-1.35-5.05-1.35c-0.68,0-1.3,0.05-1.85,0.16
	c-1.63,0.94-2.95,2.27-3.95,3.99S7.71,12.22,7.71,14.44z"/>
</svg>
